X:4
T:Ich stand...
R:Volksweise
O:
B:Frau Nachtigall (Straburg - 1928)
Z:<anamnese@laposte.net> -- http://anamnese.fr.st
N:p.7
M:6/8
L:1/8
Q:1/4=150
K:D
D | D2D A2A | F3 E2E | F2F GA B | A3 z2A | (d A) d (c B) A |
B3 A3 | G3 FA d | A>B A/G/ F2 E | D4 z |]
